X:1
T:Title
%%score { ( 1 3 ) | ( 2 4 ) }
L:1/8
Q:1/4=108
M:4/4
K:D
V:1 treble nm="Grand Piano"
V:3 treble 
V:2 bass 
V:4 bass 
V:1
 F>=F ^F>[EG] [FA]2 [FA]2 | F>=F ^F>[EG] [FA]4 | [GB]>[FA] [A,EG]>[A,DF] [A,CE]2 [A,D]2 | %3
w: Elisha~A.~Hoffman * * * * *|||
 C4- [CA]2 z2 | [A,DF]>[^G,D=F] [A,D^F]>[A,EG] [DFA]2 [DFA]2 | %5
w: ||
 [A,DF]>[^G,D=F] [A,D^F]>[A,EG] [DFA]4 | [DB]>[A,DA] [A,CG]>[A,DF][K:bass] [A,CE]2 [G,CE]2 | %7
w: ||
 [F,D]6 z2 | [FA]>[=F^G] [^FA]>[GB] [FA]2 [Fd]2 | [Ec]6 z2 | [EG]>[^DF] [EG]>[FA] [EG]2 [CGB]2 | %11
w: ||||
 [FA]2- [DF-A-]2 [DFA]2 z2 | [Fd]>[Fd] [Fd]>[Fd] c2 c2 | B>B B>B A4 | [FA]>[FA] B>B c2 [Ge]2 | %15
w: ||||
 [Fd]6 z2 |] %16
w: |
V:2
 [D,A,D]>[D,^G,D] [D,A,D]>[D,A,] [D,D]2 [D,D]2 | [D,A,D]>[D,^G,D] [D,A,D]>[D,A,] [D,D]4 | %2
 [D,D]>[D,D] C,>D, A,,2 A,,2 | z4 E,2 z2 | D,>D, D,>D, D,2 D,2 | D,>D, D,>D, D,4 | %6
 G,>F, E,>D, A,,2 A,,2 | D,6 z2 | [D,D]>[D,D] [D,D]>[D,D] [D,D]2 [D,A,]2 | A,2 A,2 A,2 z2 | %10
 [A,,A,]>[A,,A,] [A,,A,]>[A,,A,] [A,,A,]2 A,,2 | D,2 D,2 D,2 z2 | %12
 [D,A,]>[D,A,] [D,A,]>[D,A,] [F,^A,E]2 [F,A,E]2 | [G,D]>[G,D] [G,D]>[G,D] [F,A,D]4 | %14
 [D,D]>[D,D][K:treble] [G,DG]>[G,DG][K:bass] [A,E]2 [A,,A,]2 | [D,A,]6 z2 |] %16
V:3
 x8 | x8 | x8 | [A,E]4 z4 | x8 | x8 | x4[K:bass] x4 | x8 | x8 | x8 | x8 | D2 z2 z4 | x8 | x8 | x8 | %15
 x8 |] %16
V:4
 x8 | x8 | x8 | A,,6 z2 | x8 | x8 | x8 | x8 | x8 | x8 | x8 | x8 | x8 | x8 | %14
 x2[K:treble] x2[K:bass] x4 | x8 |] %16

